1-js/04-object-basics/02-object-copy/variable-copy-value.svg

<?xml version="1.0" encoding="UTF-8"?>
<svg width="359px" height="143px" viewBox="0 0 359 143" version="1.1" xmlns="http://www.w3.org/2000/svg" xmlns:xlink="http://www.w3.org/1999/xlink">
    <!-- Generator: sketchtool 55.2 (78181) - https://sketchapp.com -->
    <title>variable-copy-value.svg</title>
    <desc>Created with sketchtool.</desc>
    <g id="combined" stroke="none" stroke-width="1" fill="none" fill-rule="evenodd">
        <g id="variable-copy-value.svg">
            <g id="noun_1211_cc-+-Message" transform="translate(11.000000, 6.000000)">
                <g id="noun_1211_cc">
                    <path d="M17,37.1960457 L129.557785,37.1960457 L129.557785,80.1456641 C129.557785,80.5185728 129.479295,81.0083855 129.279367,81.4404861 C129.07944,81.8725868 112.704625,117 112.704625,117 L112.704625,62.6396695 L129.559266,37.1960457 L148,9 L35.4407339,9 L17,37.1960457 L17,37.1960457 Z" id="Shape" fill="#E8C48F"></path>
                    <polyline id="Shape" fill="#E8C48F" points="17 66 17 38 2 66"></polyline>
                    <g id="Rectangle-5-+-&quot;World!&quot;" transform="translate(15.000000, 0.000000)">
                        <path d="M18.8613371,1.80856046 L1.99871056,17.5332141 L55.1386629,74.5188362 L72.0012894,58.7941826 L18.8613371,1.80856046 Z" id="Rectangle-5" stroke="#8A704D" stroke-width="2" fill="#FFF9EB"></path>
                        <text id="&quot;Hello!&quot;" transform="translate(38.099228, 39.181970) rotate(47.000000) translate(-38.099228, -39.181970) " font-family="OpenSans-SemiBold, Open Sans" font-size="14" font-weight="500" line-spacing="17" fill="#8A704D">
                            <tspan x="4.41856411" y="43.9983764">"Hello!"</tspan>
                        </text>
                    </g>
                    <path d="M0,68 L0,122.729971 C0,126.150501 1.4836395,128 4.38712201,128 L104.473443,128 C107.59502,128 110,125.4521 110,124.524372 L110,68 L0,68 L0,68 Z" id="Shape" fill="#E8C48F"></path>
                </g>
                <text id="message" font-family="OpenSans-SemiBold, Open Sans" font-size="18" font-weight="500" fill="#FFFFFF">
                    <tspan x="17" y="105">message</tspan>
                </text>
            </g>
            <g id="Group" transform="translate(210.000000, 6.000000)">
                <path d="M17,37.1960457 L130.417005,37.1960457 L130.417005,80.1456641 C130.417005,80.5185728 130.337916,81.0083855 130.136462,81.4404861 C129.935008,81.8725868 113.435195,117 113.435195,117 L113.435195,62.6396695 L130.418497,37.1960457 L149,9 L35.5815029,9 L17,37.1960457 L17,37.1960457 Z" id="Shape" fill="#E8C48F"></path>
                <polyline id="Shape" fill="#E8C48F" points="18 66 18 38 2 66"></polyline>
                <g id="Rectangle-5-+-&quot;World!&quot;" transform="translate(15.000000, 0.000000)">
                    <path d="M19.1172186,1.79919253 L2.01617912,17.5335434 L55.8827814,74.5282042 L72.9838209,58.7938532 L19.1172186,1.79919253 Z" id="Rectangle-5" stroke="#8A704D" stroke-width="2" fill="#FFF9EB"></path>
                    <text id="&quot;Hello!&quot;" transform="translate(38.155854, 37.706510) rotate(47.000000) translate(-38.155854, -37.706510) " font-family="OpenSans-SemiBold, Open Sans" font-size="14" font-weight="500" line-spacing="17" fill="#8A704D">
                        <tspan x="4.47519034" y="42.5229163">"Hello!"</tspan>
                    </text>
                </g>
                <path d="M0,68 L0,122.729971 C0,126.150501 1.49712713,128 4.42700494,128 L105.423201,128 C108.573157,128 111,125.4521 111,124.524372 L111,68 L0,68 L0,68 Z" id="Shape" fill="#E8C48F"></path>
                <text id="phrase" font-family="OpenSans-SemiBold, Open Sans" font-size="18" font-weight="500" fill="#FFFFFF">
                    <tspan x="25" y="105">phrase</tspan>
                </text>
            </g>
        </g>
    </g>
</svg>

<svg xmlns="http://www.w3.org/2000/svg" width="359" height="143" viewBox="0 0 359 143"><defs><style>@import url(https://fonts.googleapis.com/css?family=Open+Sans:bold,italic,bolditalic%7CPT+Mono);@font-face{font-family:&apos;PT Mono&apos;;font-weight:700;font-style:normal;src:local(&apos;PT MonoBold&apos;),url(/font/PTMonoBold.woff2) format(&apos;woff2&apos;),url(/font/PTMonoBold.woff) format(&apos;woff&apos;),url(/font/PTMonoBold.ttf) format(&apos;truetype&apos;)}</style></defs><g id="combined" fill="none" fill-rule="evenodd" stroke="none" stroke-width="1"><g id="variable-copy-value.svg"><g id="noun_1211_cc-+-Message" transform="translate(11 6)"><g id="noun_1211_cc"><path id="Shape" fill="#DBAF88" d="M17 37.196h112.558v42.95c0 .373-.079.862-.279 1.294-.2.433-16.574 35.56-16.574 35.56V62.64l16.854-25.444L148 9H35.44L17 37.196zM17 66V38L2 66"/><g id="Rectangle-5-+-&quot;World!&quot;" transform="translate(15)"><path id="Rectangle-5" fill="#FBF2EC" stroke="#AF6E24" stroke-width="2" d="M18.861 1.809l53.14 56.985L55.14 74.52 1.999 17.533 18.86 1.81z"/><text id="&quot;Hello!&quot;" fill="#AF6E24" font-family="OpenSans-Bold, Open Sans" font-size="14" font-weight="bold" transform="rotate(47 38.202 38.946)"><tspan x="2.822" y="43.482">&quot;Hello!&quot;</tspan></text></g><path id="Shape" fill="#DBAF88" d="M0 68v54.73c0 3.42 1.484 5.27 4.387 5.27h100.086c3.122 0 5.527-2.548 5.527-3.476V68H0z"/></g><text id="message" fill="#FFF" font-family="OpenSans-Bold, Open Sans" font-size="18" font-weight="bold"><tspan x="17" y="105">message</tspan></text></g><g id="Group" transform="translate(210 6)"><path id="Shape" fill="#DBAF88" d="M17 37.196h113.417v42.95c0 .373-.08.862-.28 1.294-.202.433-16.702 35.56-16.702 35.56V62.64l16.983-25.444L149 9H35.582L17 37.196z"/><path id="Shape" fill="#DBAF88" d="M18 66V38L2 66"/><g id="Rectangle-5-+-&quot;World!&quot;" transform="translate(15)"><path id="Rectangle-5" fill="#FBF2EC" stroke="#AF6E24" stroke-width="2" d="M19.117 1.8l53.867 56.994-17.101 15.734L2.016 17.534 19.117 1.799z"/><text id="&quot;Hello!&quot;" fill="#AF6E24" font-family="OpenSans-Bold, Open Sans" font-size="14" font-weight="bold" transform="rotate(47 38.162 37.693)"><tspan x="2.782" y="42.23">&quot;Hello!&quot;</tspan></text></g><path id="Shape" fill="#DBAF88" d="M0 68v54.73c0 3.42 1.497 5.27 4.427 5.27h100.996c3.15 0 5.577-2.548 5.577-3.476V68H0z"/><text id="phrase" fill="#FFF" font-family="OpenSans-Bold, Open Sans" font-size="18" font-weight="bold"><tspan x="25" y="105">phrase</tspan></text></g></g></g></svg>
